X:1
T:Куранты
T:Куранты
T:Два голоса
T:В.Щербачев
C:В.Щербачев
%%score { 1 | 2 } { 3 | 4 }
L:1/8
Q:1/4=100
M:4/4
K:F
V:1 treble nm="I" snm="I"
V:2 treble 
V:3 treble nm="II" snm="II"
V:4 bass 
V:1
"^\n = Moderato\n" de | (!tenuto!f2 !tenuto!a2) (a2 f2) | %2
{/f} ((ed) ((^c2) c)A)(!tenuto!=B!tenuto!c) |{/e} d^c(.d.e)({/g} fe)(.f.g) | (a2 =c'>b (a3 g)) | %5
 (a2 !tenuto!d'2) (d'2 e'2) |{/c'} (ba) (b2 b)(egb) | (fa) a2{/f} (ed)(!tenuto!e!tenuto!f) | %8
 (d4 d) z (de) | (!tenuto!f2 !tenuto!a2) (a2 f2) |{/f} ed ((^c2 c)A)(=Bc) | %11
{/e} (d^c)(.d.e){/g} (fe)(.f.g) | (a2 =c'>b) (a3 g) | (a2 c'2) (c'2 f2) |{/f} (ed) (c2 c)c(de) | %15
{/g} (fe)(.f.g){/b} (ag)(.a.b) | g2 (c'>d') (c'3 b) | (a2 c'2) (c'2 d'2) | e'2 (g'>f') (e'3 d') | %19
 ((e'2 e'/)f'/e'/d'/e'/) g'3 f'/ | (e'3 (d' d'))e'(c'=b) | (c'2 e'2) (e'2 a2) | (c'3 d') (c'bag) | %23
!mp! (a2 c'2) (c'2 f2) |{/f} (!tenuto!e!tenuto!d) (c2 c)c(de) |{/g} (fe)(.f.g){/b} (ag)(.a.b) | %26
 g2 (c'>d') (c'3 b) | (a2 c'2) c'2!p!!8va(! (f'>g') | a'3{/c''} b' (a'g')(a'e') | %29
 (f'a') (a'4 a')!8va)! z | z4 z2!pp! (de) | (f2 a2) (a2 f2) | %32
{/f} (ed) ((^c2 c)A)(!tenuto!=B!tenuto!c) |{/e} (d^c)(.d.e){/g} (fe)(.f.g) | (a2 =c'>)b (a3 g) | %35
 (!tenuto!a2 !tenuto!d'2) (d'2 e'2) |{/c'} (ba) (b2 b)(egb) | ((fa)) (a4 a'2) | (d'4 d') z z2 |] %39
V:2
 z2 | z8 | z8 | z8 | z8 | z8 | z8 | z8 | z8 | z4!8va(! a'4!8va)! | z2 a2!8va(! a'4!8va)! | %11
 z2 a2 z2!8va(! a'2!8va)! | z4!8va(! a'4!8va)! | z4!8va(! c''4!8va)! | z2 c'2!8va(! c''4!8va)! | %15
 z8 | z4!8va(! c''4!8va)! | z8 | z8 | z8 | z8 | z8 | z8 | z8 | z8 | z8 | z8 | z4 z2 (f>g) | %28
 a3{/c'} b (ag)(ae) | (fa) a2{/f} (ed)(ef) | (d4 d) z z2 | z8 | z8 | z2 a2 z2 a2 | %34
 z2 a2!8va(! a'4!8va)! | z8 | z8 | z4{/f} (ed)(ef) | (d4 d) z z2 |] %39
V:3
 z2 |!p! z .A.F.A z .A.F.A | z .A.G.A z .G.E.G | z .A.F.A z .A.F.A | z .A.G.A z .A.G.A | %5
 z .A.F.A z .A.F.A | z .G.E.G z .G.E.G | z .A.F.A z .A.G.A | z .A.F.A D z z2 | z .A.F.A z .A.F.A | %10
 z .A.G.A z .G.E.G | z .A.F.A z .A.F.A | z .A.G.A z .A.G.A | z .c.A.c z .c.A.c | z B2 .B z .B.G.c | %15
 z .c.A.c z .c.A.c | z .c.B.c z .c.B.c | z .c.A.c z .c.A.c | z .c.A.c z .e.^G.e | %19
 z .e.A.e z .=B.F.B | z .c.E.c z .e.^G.e | z .c.E.c z .e.A.e | z .c.B.c z .c.B.c | %23
!mp! z .c.A.c z .c.A.c | z B2 .B z .B.G.c | z .c.A.c z .c.A.c | z .c.B.c z .c.B.c | %27
 z .c.A.c z .c.A.c |!p! z .A.G.A z .A.G.A | z .A.F.A z .A.F.A | z .A.F.A D z z2 | %31
!pp! z .A.F.A z .A.F.A | z .A.G.A z .A.G.A | z .A.F.A z .A.F.A | z .A.G.A z .A.G.A | %35
 z .A.F.A z .A.F.A | z .G.E.G z .G.E.G | z .A.F.A z .A.G.A | z .A.F.A D z z2 |] %39
V:4
 z2 | D4 A,4 | ^C4 A,4 | D4 A,4 | E4 A,4 | D4 A,4 | D4 A,4 | D4 A,4 | D4 z4 | D4 A,4 | ^C4 A,4 | %11
 D4 A,4 | E4 A,4 | F4 C4 | G4 C4 | F4 C4 | G4 C4 | F4 C4 | E4 =B,4 | C4 ^G,4 | A,4 E,4 | A,4 C4 | %22
 G4 C4 | F4 C4 | G4 C4 | F4 C4 | G4 C4 | F4 C4 | E4 A,4 | D4 A,4 | D4 z4 | D4 A,4 | ^C4 A,4 | %33
 D4 A,4 | E4 A,4 | D4 A,4 | D4 A,4 | D4 A,4 | D4 z4 |] %39

